public/icon/svg/Audiences.pt.svg

<?xml version="1.0" encoding="UTF-8"?>
<svg width="1024px" height="1024px" viewBox="0 0 1024 1024" version="1.1" xmlns="http://www.w3.org/2000/svg" xmlns:xlink="http://www.w3.org/1999/xlink">
    <title>Audiences</title>
    <defs>
        <path d="M55.3515625,60.2392578 L55.3515625,2.72949219 L75.2197266,2.72949219 L75.2197266,60.2392578 C75.2197266,70.1839193 73.6751302,77.9280599 70.5859375,83.4716797 C64.8307292,93.6279297 53.8492839,98.7060547 37.6416016,98.7060547 C21.4339193,98.7060547 10.4313151,93.6279297 4.63378906,83.4716797 C1.54459635,77.9280599 0,70.1839193 0,60.2392578 L0,2.72949219 L19.8681641,2.72949219 L19.8681641,60.2392578 C19.8681641,66.6715495 20.6298828,71.3688151 22.1533203,74.3310547 C24.523112,79.5784505 29.6858724,82.2021484 37.6416016,82.2021484 C45.555013,82.2021484 50.6966146,79.5784505 53.0664062,74.3310547 C54.5898438,71.3688151 55.3515625,66.6715495 55.3515625,60.2392578 Z" id="path-1"></path>
        <path d="M134.189453,96.2939453 L93.8818359,96.2939453 L93.8818359,2.72949219 L134.189453,2.72949219 C139.986979,2.8141276 144.811198,3.49121094 148.662109,4.76074219 C155.221354,6.91894531 160.532227,10.875651 164.594727,16.6308594 C167.85319,21.2858073 170.07487,26.3216146 171.259766,31.7382812 C172.444661,37.1549479 173.037109,42.3177083 173.037109,47.2265625 C173.037109,59.6679687 170.540365,70.2050781 165.546875,78.8378906 C158.776042,90.4752604 148.323568,96.2939453 134.189453,96.2939453 Z M148.725586,26.5966797 C145.721029,21.5185547 139.775391,18.9794922 130.888672,18.9794922 L112.861328,18.9794922 L112.861328,80.0439453 L130.888672,80.0439453 C140.113932,80.0439453 146.546224,75.4947917 150.185547,66.3964844 C152.174479,61.4029948 153.168945,55.4573568 153.168945,48.5595703 C153.168945,39.0380859 151.687826,31.7171224 148.725586,26.5966797 Z" id="path-2"></path>
        <polygon id="path-3" points="186.240234 2.72949219 205.664062 2.72949219 205.664062 96.2939453 186.240234 96.2939453"></polygon>
        <polygon id="path-4" points="289.008789 55.4150391 243.55957 55.4150391 243.55957 79.4726562 295.356445 79.4726562 295.356445 96.2939453 224.453125 96.2939453 224.453125 2.72949219 293.071289 2.72949219 293.071289 19.296875 243.55957 19.296875 243.55957 39.1650391 289.008789 39.1650391"></polygon>
        <polygon id="path-5" points="386.254883 96.2939453 366.704102 96.2939453 328.491211 29.8339844 328.491211 96.2939453 310.273438 96.2939453 310.273438 2.72949219 330.776367 2.72949219 368.037109 68.046875 368.037109 2.72949219 386.254883 2.72949219"></polygon>
        <path d="M470.488281,89.3115234 C463.505859,95.7014974 454.576823,98.8964844 443.701172,98.8964844 C430.244141,98.8964844 419.664714,94.5800781 411.962891,85.9472656 C404.261068,77.2721354 400.410156,65.3808594 400.410156,50.2734375 C400.410156,33.9388021 404.790039,21.3492839 413.549805,12.5048828 C421.166992,4.8030599 430.857747,0.952148438 442.62207,0.952148438 C458.364258,0.952148438 469.874674,6.11490885 477.15332,16.4404297 C481.173503,22.2379557 483.331706,28.0566406 483.62793,33.8964844 L464.077148,33.8964844 C462.807617,29.4108073 461.178385,26.0253906 459.189453,23.7402344 C455.634766,19.6777344 450.366211,17.6464844 443.383789,17.6464844 C436.274414,17.6464844 430.667318,20.5135091 426.5625,26.2475586 C422.457682,31.9816081 420.405273,40.0960286 420.405273,50.5908203 C420.405273,61.085612 422.574056,68.9461263 426.911621,74.1723633 C431.249186,79.3986003 436.761068,82.0117188 443.447266,82.0117188 C450.302734,82.0117188 455.528971,79.7688802 459.125977,75.2832031 C461.114909,72.8710938 462.765299,69.2529297 464.077148,64.4287109 L483.4375,64.4287109 C481.744792,74.6272786 477.428385,82.9215495 470.488281,89.3115234 Z" id="path-6"></path>
        <polygon id="path-7" points="563.481445 55.4150391 518.032227 55.4150391 518.032227 79.4726562 569.829102 79.4726562 569.829102 96.2939453 498.925781 96.2939453 498.925781 2.72949219 567.543945 2.72949219 567.543945 19.296875 518.032227 19.296875 518.032227 39.1650391 563.481445 39.1650391"></polygon>
        <path d="M619.023438,82.7734375 C623.636068,82.7734375 627.381185,82.265625 630.258789,81.25 C635.717773,79.3033854 638.447266,75.6852214 638.447266,70.3955078 C638.447266,67.3063151 637.093099,64.9153646 634.384766,63.2226562 C631.676432,61.5722656 627.423503,60.1123047 621.625977,58.8427734 L611.723633,56.6210937 C601.99056,54.4205729 595.262044,52.0296224 591.538086,49.4482422 C585.232747,45.1318359 582.080078,38.3821615 582.080078,29.1992188 C582.080078,20.8203125 585.126953,13.8590495 591.220703,8.31542969 C597.314453,2.7718099 606.264648,0 618.071289,0 C627.931315,0 636.34196,2.61311849 643.303223,7.83935547 C650.264486,13.0655924 653.914388,20.6510417 654.25293,30.5957031 L635.463867,30.5957031 C635.125326,24.9674479 632.670898,20.9684245 628.100586,18.5986328 C625.053711,17.0328776 621.266276,16.25 616.738281,16.25 C611.702474,16.25 607.682292,17.265625 604.677734,19.296875 C601.673177,21.328125 600.170898,24.1634115 600.170898,27.8027344 C600.170898,31.1458333 601.652018,33.6425781 604.614258,35.2929688 C606.518555,36.3932292 610.581055,37.6839193 616.801758,39.1650391 L632.924805,43.0371094 C639.991862,44.7298177 645.323893,46.9938151 648.920898,49.8291016 C654.506836,54.2301432 657.299805,60.5989583 657.299805,68.9355469 C657.299805,77.483724 654.030762,84.5825195 647.492676,90.2319336 C640.95459,95.8813477 631.71875,98.7060547 619.785156,98.7060547 C607.597656,98.7060547 598.012695,95.9236654 591.030273,90.3588867 C584.047852,84.7941081 580.556641,77.1451823 580.556641,67.4121094 L599.21875,67.4121094 C599.811198,71.6861979 600.974935,74.8811849 602.709961,76.9970703 C605.883789,80.8479818 611.321615,82.7734375 619.023438,82.7734375 Z" id="path-8"></path>
        <polygon id="path-9" points="0 0 12.8291016 0 12.8291016 14.5283203 26.8476562 14.5283203 26.8476562 0 39.7333984 0 39.7333984 41.5175781 26.8476562 41.5175781 26.8476562 24.7236328 12.8291016 24.7236328 12.8291016 41.5175781 0 41.5175781"></polygon>
        <path d="M48.4277344,0 L67.4873047,0 C71.2444661,0 74.2794596,0.509765625 76.5922852,1.52929688 C78.9051107,2.54882812 80.8167318,4.01204427 82.3271484,5.91894531 C83.8375651,7.82584635 84.9326172,10.0442708 85.6123047,12.5742187 C86.2919922,15.1041667 86.6318359,17.7851562 86.6318359,20.6171875 C86.6318359,25.0540365 86.1267904,28.4949544 85.1166992,30.9399414 C84.1066081,33.3849284 82.7047526,35.433431 80.9111328,37.0854492 C79.117513,38.7374674 77.1917318,39.8372396 75.1337891,40.3847656 C72.320638,41.139974 69.7718099,41.5175781 67.4873047,41.5175781 L48.4277344,41.5175781 L48.4277344,0 Z M61.2568359,9.40234375 L61.2568359,32.0869141 L64.4003906,32.0869141 C67.0813802,32.0869141 68.9882812,31.7895508 70.1210938,31.1948242 C71.2539062,30.6000977 72.141276,29.5616862 72.7832031,28.0795898 C73.4251302,26.5974935 73.7460938,24.194987 73.7460938,20.8720703 C73.7460938,16.4729818 73.0286458,13.4615885 71.59375,11.8378906 C70.1588542,10.2141927 67.7799479,9.40234375 64.4570312,9.40234375 L61.2568359,9.40234375 Z" id="path-10"></path>
    </defs>
    <g id="ICON-新版方图标" stroke="none" stroke-width="1" fill="none" fill-rule="evenodd">
        <g id="Audiences">
            <rect id="蒙版路径" fill="#FFFFFF" x="0" y="0" width="1024" height="1024"></rect>
            <g id="UDIENCES" transform="translate(185.5161, 748.7061)" fill-rule="nonzero">
                <g id="路径">
                    <use fill="#FFFFFF" xlink:href="#path-1"></use>
                    <use fill="#666666" xlink:href="#path-1"></use>
                </g>
                <g id="形状">
                    <use fill="#FFFFFF" xlink:href="#path-2"></use>
                    <use fill="#666666" xlink:href="#path-2"></use>
                </g>
                <g id="路径">
                    <use fill="#FFFFFF" xlink:href="#path-3"></use>
                    <use fill="#666666" xlink:href="#path-3"></use>
                </g>
                <g id="路径">
                    <use fill="#FFFFFF" xlink:href="#path-4"></use>
                    <use fill="#666666" xlink:href="#path-4"></use>
                </g>
                <g id="路径">
                    <use fill="#FFFFFF" xlink:href="#path-5"></use>
                    <use fill="#666666" xlink:href="#path-5"></use>
                </g>
                <g id="路径">
                    <use fill="#FFFFFF" xlink:href="#path-6"></use>
                    <use fill="#666666" xlink:href="#path-6"></use>
                </g>
                <g id="路径">
                    <use fill="#FFFFFF" xlink:href="#path-7"></use>
                    <use fill="#666666" xlink:href="#path-7"></use>
                </g>
                <g id="路径">
                    <use fill="#FFFFFF" xlink:href="#path-8"></use>
                    <use fill="#666666" xlink:href="#path-8"></use>
                </g>
            </g>
            <g id="编组-42" transform="translate(713, 179)">
                <rect id="矩形" fill="#000000" x="0" y="0" width="132" height="87" rx="8"></rect>
                <g id="HD" transform="translate(24.0903, 25.4824)" fill="#FFFFFF" fill-rule="nonzero">
                    <g id="路径">
                        <use xlink:href="#path-9"></use>
                        <use xlink:href="#path-9"></use>
                    </g>
                    <g id="形状">
                        <use xlink:href="#path-10"></use>
                        <use xlink:href="#path-10"></use>
                    </g>
                </g>
            </g>
            <g id="编组-43" transform="translate(278, 177)">
                <polygon id="三角形" fill="#000000" points="231 1.50956504e-13 461.5 529 359.5 529 337 475 126 475 103 529 0 529"></polygon>
                <polygon id="三角形" fill="#FFFFFF" points="231 89 405 493 382.5 493 231 146 110.5 422 351.065033 421 358.932129 439.00769 102 439.5 78 493 57 493"></polygon>
                <polygon id="三角形" fill="#000000" points="231 145 351 421 111 421"></polygon>
                <polygon id="三角形" fill="#FFFFFF" points="231.5 236 298 386 165 386"></polygon>
            </g>
        </g>
    </g>
</svg>

<svg xmlns="http://www.w3.org/2000/svg" xmlns:xlink="http://www.w3.org/1999/xlink" width="1024" height="1024"><defs><path id="a" d="M55.352 60.24V2.73H75.22v57.51c0 9.944-1.545 17.688-4.634 23.232-5.755 10.156-16.737 15.234-32.944 15.234-16.208 0-27.21-5.078-33.008-15.234C1.544 77.928 0 70.184 0 60.239V2.73h19.868v57.51c0 6.433.762 11.13 2.285 14.092 2.37 5.247 7.533 7.871 15.489 7.871 7.913 0 13.055-2.624 15.424-7.87 1.524-2.963 2.286-7.66 2.286-14.093"/><path id="b" d="M134.19 96.294H93.881V2.729h40.307c5.798.085 10.622.762 14.473 2.032 6.56 2.158 11.87 6.115 15.933 11.87 3.258 4.655 5.48 9.69 6.665 15.107 1.185 5.417 1.777 10.58 1.777 15.489 0 12.441-2.497 22.978-7.49 31.61-6.771 11.638-17.223 17.457-31.358 17.457m14.536-69.697c-3.005-5.078-8.95-7.618-17.837-7.618H112.86v61.065h18.028c9.225 0 15.657-4.55 19.297-13.648 1.988-4.993 2.983-10.939 2.983-17.836 0-9.522-1.481-16.843-4.443-21.963Z"/><path id="c" d="M186.24 2.73h19.424v93.564H186.24z"/><path id="d" d="M289.009 55.415h-45.45v24.058h51.797v16.82h-70.903V2.73h68.618v16.568H243.56v19.868h45.449z"/><path id="e" d="M386.255 96.294h-19.55l-38.214-66.46v66.46h-18.218V2.729h20.503l37.261 65.318V2.729h18.218z"/><path id="f" d="M470.488 89.312c-6.982 6.39-15.911 9.584-26.787 9.584-13.457 0-24.036-4.316-31.738-12.949-7.702-8.675-11.553-20.566-11.553-35.674 0-16.334 4.38-28.924 13.14-37.768C421.167 4.803 430.858.952 442.622.952c15.742 0 27.253 5.163 34.531 15.488 4.02 5.798 6.179 11.617 6.475 17.456h-19.55c-1.27-4.485-2.9-7.87-4.889-10.156-3.554-4.062-8.823-6.094-15.805-6.094-7.11 0-12.717 2.868-16.822 8.602-4.104 5.734-6.157 13.848-6.157 24.343s2.17 18.355 6.507 23.581c4.337 5.227 9.85 7.84 16.535 7.84 6.856 0 12.082-2.243 15.679-6.729 1.989-2.412 3.64-6.03 4.951-10.854h19.36c-1.692 10.198-6.009 18.493-12.949 24.883"/><path id="g" d="M563.481 55.415h-45.449v24.058h51.797v16.82h-70.903V2.73h68.618v16.568h-49.512v19.868h45.45z"/><path id="h" d="M619.023 82.773c4.613 0 8.358-.507 11.236-1.523 5.459-1.947 8.188-5.565 8.188-10.854 0-3.09-1.354-5.48-4.062-7.173-2.709-1.65-6.961-3.11-12.759-4.38l-9.902-2.222c-9.733-2.2-16.462-4.591-20.186-7.173-6.305-4.316-9.458-11.066-9.458-20.249 0-8.379 3.047-15.34 9.14-20.884C597.315 2.772 606.266 0 618.072 0c9.86 0 18.271 2.613 25.232 7.84 6.961 5.226 10.611 12.811 10.95 22.756h-18.79c-.338-5.629-2.792-9.628-7.362-11.997-3.047-1.566-6.835-2.349-11.363-2.349-5.036 0-9.056 1.016-12.06 3.047-3.005 2.031-4.507 4.866-4.507 8.506 0 3.343 1.481 5.84 4.443 7.49 1.905 1.1 5.967 2.39 12.188 3.872l16.123 3.872c7.067 1.693 12.399 3.957 15.996 6.792 5.586 4.401 8.379 10.77 8.379 19.107 0 8.548-3.27 15.647-9.807 21.296-6.538 5.65-15.774 8.474-27.708 8.474-12.187 0-21.772-2.782-28.755-8.347-6.982-5.565-10.473-13.214-10.473-22.947h18.662c.592 4.274 1.756 7.47 3.491 9.585 3.174 3.851 8.612 5.776 16.313 5.776"/><path id="i" d="M0 0h12.83v14.528h14.018V0h12.885v41.518H26.848V24.724H12.829v16.794H0z"/><path id="j" d="M48.428 0h19.06c3.756 0 6.791.51 9.104 1.53 2.313 1.019 4.225 2.482 5.735 4.389 1.51 1.907 2.606 4.125 3.285 6.655.68 2.53 1.02 5.211 1.02 8.043 0 4.437-.505 7.878-1.515 10.323-1.01 2.445-2.412 4.493-4.206 6.145-1.793 1.652-3.72 2.752-5.777 3.3-2.813.755-5.362 1.133-7.647 1.133h-19.06V0m12.829 9.402v22.685H64.4c2.681 0 4.588-.297 5.721-.892s2.02-1.633 2.662-3.115c.642-1.483.963-3.885.963-7.208 0-4.399-.717-7.41-2.152-9.034-1.435-1.624-3.814-2.436-7.137-2.436h-3.2"/></defs><g fill="none" fill-rule="evenodd"><path fill="#FFF" d="M0 0h1024v1024H0z"/><g fill-rule="nonzero"><g transform="translate(185.516 748.706)"><use xlink:href="#a" fill="#FFF"/><use xlink:href="#a" fill="#666"/></g><g transform="translate(185.516 748.706)"><use xlink:href="#b" fill="#FFF"/><use xlink:href="#b" fill="#666"/></g><g transform="translate(185.516 748.706)"><use xlink:href="#c" fill="#FFF"/><use xlink:href="#c" fill="#666"/></g><g transform="translate(185.516 748.706)"><use xlink:href="#d" fill="#FFF"/><use xlink:href="#d" fill="#666"/></g><g transform="translate(185.516 748.706)"><use xlink:href="#e" fill="#FFF"/><use xlink:href="#e" fill="#666"/></g><g transform="translate(185.516 748.706)"><use xlink:href="#f" fill="#FFF"/><use xlink:href="#f" fill="#666"/></g><g transform="translate(185.516 748.706)"><use xlink:href="#g" fill="#FFF"/><use xlink:href="#g" fill="#666"/></g><g transform="translate(185.516 748.706)"><use xlink:href="#h" fill="#FFF"/><use xlink:href="#h" fill="#666"/></g></g><g transform="translate(713 179)"><rect width="132" height="87" fill="#000" rx="8"/><g fill="#FFF" fill-rule="nonzero"><g transform="translate(24.09 25.482)"><use xlink:href="#i"/><use xlink:href="#i"/></g><g transform="translate(24.09 25.482)"><use xlink:href="#j"/><use xlink:href="#j"/></g></g></g><path fill="#000" d="m509 177 230.5 529h-102L615 652H404l-23 54H278z"/><path fill="#FFF" d="m509 266 174 404h-22.5L509 323 388.5 599l240.565-1 7.867 18.008L380 616.5 356 670h-21z"/><path fill="#000" d="m509 322 120 276H389z"/><path fill="#FFF" d="M509.5 413 576 563H443z"/></g></svg>
